src/platform/packages/shared/kbn-custom-icons/assets/lambda.svg

<svg width="24" height="25" viewBox="0 0 24 25" fill="none" xmlns="http://www.w3.org/2000/svg">
<circle cx="12" cy="13" r="12" fill="#FB7E14"/>
<path fill-rule="evenodd" clip-rule="evenodd" d="M7.41041 5V7.55399H9.48632L10.3389 10.2207L4 20.1737H7.11386L11.6364 13.4131L14.6019 21L19.2727 19.4977L18.5313 17.169L16.3813 17.8451L11.3398 5H7.41041Z" fill="white"/>
</svg>

<svg xmlns="http://www.w3.org/2000/svg" width="24" height="25" fill="none"><circle cx="12" cy="13" r="12" fill="#FB7E14"/><path fill="#fff" fill-rule="evenodd" d="M7.41 5v2.554h2.076l.853 2.667L4 20.174h3.114l4.522-6.76L14.602 21l4.67-1.502-.74-2.329-2.15.676L11.34 5z" clip-rule="evenodd"/></svg>
